X: 84
T: Out on the Ocean
R: jig
Z: 2012 John Chambers <jc@trillian.mit.edu>
B: "100 Essential Irish Session Tunes" 1995 Dave Mallinson, ed.
M: 6/8
L: 1/8
K: G
zA |\
"G"B3 BAG | BdB "D"A2B | "C"GED G2A | "A7"BAB "D"GED |\
"G"B2B BAG | "G"BdB "D"A2B | "C"GED G2A | "D7"BGG G :|
|: Bd |\
"Em"efe edB | efe edB | "D"deB def | "C"gfe "D7"dBA |\
"G"G2A B2d | "Em"ege dBA | "C"GED G2A | "D7"BGG "D"G :|
